X: 41260
T: Tuam
R: reel
M: 4/4
K: Dmajor
af|:(3ded Ad FdAd|dfaf gece|(3ded Ad FdAA|(3Bcd ef geaf|
(3ded Ad FdAd|dfaf gedc|Bdba gage|1 ceag fdec:|2 ceag fddf||
|:a2ab afdf|abaf gece|(3aba ab afdf|gbag fddf|
agab afdc|dfaf gedc|(3Bcd ba gage|1 ceag fddf:|2 ceag fdec||

